!!!OTL: DEN SONNTAG DEN MONTAG IN ALLER FRUEH
!!!ARE: Europa, Mitteleuropa, Deutschland
!!!SCT: E0557
!!!YEM: Copyright 1995, estate of Helmut Schaffrath.
**kern
*ICvox
*Ivox
*M2/4
*k[b-]
*F:
{8c
=1
4f
8f
8g
=2
4a
8a}
{8a
=3
4g
4g
=4
4f
8r}
{8g
=5
8a
8g
8a
8b-
=6
4cc
8cc}
{8cc
=7
4b-
4b-
=8
4a
8r}
{8cc
=9
8cc
8cc
8ff
8cc
=10
4b-
8dd}
{8b-
=11
4a
8cc
8a
=12
4g
8r}
{8c
=13
8f
8g
8a
8b-
=14
8cc
8ff
8dd}
{8b-
=15
4a
4g
=16
4f
8r}
==
!!!AGN: Liebes - Lied, Abschied, Trennung
!!!ONB: ESAC (Essen Associative Code) Database: ERK1
!!!AMT: simple duple
!!!AIN: vox
!!!EED: Helmut Schaffrath
!!!EEV: 1.0
*-
